X:17005
T:Quarter Brawle
T:Quatre Branle
R:Branle
C:Tielman Susato (Danserye 1551)
O:Flemish
Z:Paul Hardy's Session Tunebook 2022 (see www.paulhardy.net). Creative Commons cc by-nc-sa licenced.
M:4/4
L:1/8
Q:1/4=140
K:G
"G"B2BA "Em"GFGA|"G"Bcdc "D"B2A2|"G"B2BA "Em"GFGA|"G"B2dc "D"A4:|
|:"G"Bcde "D"dcBA|"Em"B2G2 G2B2|"Am"c2B2 "D"A4:|
|:"G"Bcd2 Bcd2|Bcde "Am"c2B2|"Em"e3d "Am"c2B2|"Em"e3d "Am"c2B2|"G"BcdB "Am"cBAG|
"D"FEGF "G"G2dc|B2AG "D"A2dc|"G"B2 "D"A2 "G"G2dc|B2AG "D"A2dc|"G"B2 "D"A2 "G"G4:|

